X:1
T:Title
%%score ( 1 2 ) ( 3 4 )
L:1/8
Q:1/4=80
M:6/8
K:C
V:1 treble nm="Violin, SOPRANO ALTO"
V:2 treble 
V:3 bass nm="Violin, TENOR BASS"
V:4 bass 
V:1
 z3 z2 [EG] | [EG]2 [EG] [CE][FA][EG] | [CE]3- [CE]2 [CE] | [DF]2 [DF] [B,D][EG][DF] | %4
w: 1.~I~|love~ the~ church~ * of~|God,~ * The~|house~ that~ Je * sus~|
 [CE]3- [CE]2 [EG] | [FA]2 [FA] [Ac][GB][FA] | [EG]2 [EG] [Ec]2 [Ec] | [FB]2 [FB] BA[FB] | %8
w: built,~ * And~|pur chased~ by~ * the~|pre cious~ blood,~ For~|us~ He~ free * ly~|
 [Ec]3- [Ec]2 [EG] | [Ge]2 [Ge] [Ge]2 [Ge] | [Ge]3 [Ec]2 [Ec] | [Gd]2 [Gd] de[Gf] | %12
w: spilt.~ * *||||
 [Ge]3- [Ge]2 [EG] | [FA]2 [FA] [Ac][GB][FA] | [EG]3 [Ec]2 [Ec] | [FB]2 [FB] BA[FB] | [Ec]6 |] %17
w: |||||
V:2
 x6 | x6 | x6 | x6 | x6 | x6 | x6 | z3 .F3 | x6 | x6 | x6 | z3 .G3 | x6 | x6 | x6 | z3 .F3 | x6 |] %17
V:3
 z3 z2 [C,C] | [C,C]2 [C,C] [C,G,]2 [C,G,] | [C,G,]3- [C,G,]2 [C,G,] | %3
 [G,,G,]2 [G,,G,] [G,,G,]2 [G,,G,] | [C,G,]3- [C,G,]2 [C,C] | [F,C]2 [F,C] [F,C]2 [F,C] | %6
 [C,C]2 [C,C] [C,G,]2 [C,G,] | [G,,G,]2 [G,,G,] [G,,G,]2 [G,,G,] | [C,G,]3- [C,G,]2 [C,C] | %9
 [C,C]2 [C,C] [C,C]2 [C,C] | [C,C]3 [C,G,]2 [C,C] | [G,B,]2 [G,B,] B,C[G,D] | C3- C2 [C,C] | %13
 [F,C]2 [F,C] [F,C]2 [F,C] | [C,C]3 [C,G,]2 [C,G,] | G,2 G, [G,,G,]2 [G,,G,] | [C,G,]6 |] %17
V:4
 x6 | x6 | x6 | x6 | x6 | x6 | x6 | x6 | x6 | x6 | x6 | z3 .G,3 | x6 | x6 | x6 | x6 | x6 |] %17

